X:1
T:James Gibb editions
T:Psalm 146 (Becker) - Schütz
%%score [ ( 1 2 ) ( 3 4 ) ]
L:1/8
Q:1/4=98
M:2/2
K:D
V:1 treble nm="Soprano Alto"
V:2 treble 
V:3 bass nm="Tenor Bass"
V:4 bass 
V:1
"^Cornelius Becker\n(1561-1604)""^Psalm 146, SWV 251""^Heinrich Schütz\n(1585-1672)" F4 A2 A2 | %1
w: ~Mein Seel soll|
 B2 A2 G2 G2 | F4 A4 | B2 c2 d2 e2 | (dc) B2 A4 |[M:2/2] d4 c2 e2 | B2 G2 B2 c2 | d4 A4 | %8
w: lo- ben Gott den|Herrn, ich|lob ihn ja von|Her\- * zen gern,|ich will lob-|sin- gen mei- nem|Gott, so|
 c2 d2 e2 d2 | (c2 B4) ^A2 | B8 |] %11
w: lang ich leb bis|in * den|Tod.|
V:2
 D4 C2 F2 | D2 A,2 E2 E2 | A,4 F4 | F2 A2 A2 A2 | (FA) ^G2 A4 |[M:2/2] F4 F2 E2 | E2 E2 D2 A2 | %7
 A4 F4 | A2 A2 G2 F2 | G4 F4 | F8 |] %11
V:3
 B,4 A,2 D2 | B,2 D2 D2 C2 | D4 D4 | D2 E2 F2 E2 | (A,E) E2 C4 | %5
[M:2/2]"^3. Des Menschen Geist muß doch davon, \ner wird zu Erde wiederum. \nAlsdann seinAbschlag sind verlorn \nund alles, was er ihm erkorn.\n\n4. Selig ist der zu jeder Frist, \ndes Hülfe der Gott Jakobs ist, \nder sein Vertrauen in der Not \nallein setzt auf des Lebens Gott.\n\n5. Er hat Himmel, Erd und das Meer \ngemacht mit allem ihren Heer. \nSetz nur auf ihn dein Zuversicht, \ndenn er hält Glauben ewiglich.\n\n6. Er schaffet Recht und hilft sobald \ndenen, die leiden groß Gewalt, \ndie Hungrigen speist er mit Brot \nund wendet der Gefangnen Not.\n\n7. Der Herr macht sehend blinde Leut, \ner liebt und schützt Gerchtigkeit, \nsein starke Hand richt' auf geschwind \nalle, die niederschlagen sind.\n\n9. Darauf steht unsre Zuversicht, \nder Herr ist König ewiglich, \ndein Gott, o Zion, allezeit! \nHalleluja sing'n wir mit Freud." B,4 A,2 A,2 | %6
 G,2 B,2 B,2 E2 | F4 D4 | E2 F2 B,2 D2 | (E3 D C2) C2 | B,8 |] %11
V:4
 B,,4 F,2 D,2 | G,2 F,2 E,2 E,2 | D,4 D,4 | B,,2 A,,2 D,2 C,2 | (D,A,,) E,2 A,,4 | %5
[M:2/2] B,,4 F,2 C,2 | E,2 E,2 (G,B,) A,2 | D,4 D,4 | A,2 F,2 E,2 B,2 | E,4 F,4 | B,,8 |] %11

